!!!!SEGMENT: pl-wtm--r-130-m--002_moniuszko-stanislaw-msza-es-dur-gloria.krn
!!!id: 18xx:2695
!!!COM: Moniuszko, Stanisław
!!!OTL: Msza Es-dur – Gloria
!!!PDT: 1865
!!!SMS-siglum: PL-Wtm
!!!SMS-shelfmark: R 130/M
!!!NIFC-rismID: 1001095073
!!!URL-scan: http://repozytorium.nifc.pl/skany/pl-wtm-nut--r130m
!!!ONB-nifc: UWAGA: części Mszy: 1. Kyrie, 2. Gloria, 3. Gratias, 4. Credo, 5. Sanctus, 6. Benedictus, 7. Agnus Dei
!!!SMS-variant:
!!!SMS-altvar:
**kern	**dynam	**kern	**dynam	**kern	**dynam	**kern	**dynam	**kern	**dynam	**kern	**kern	**kern	**kern	**dynam	**kern	**text	**dynam	**kern	**text	**dynam	**kern	**text	**dynam	**kern	**text	**dynam
*part11	*part11	*part10	*part10	*part9	*part9	*part8	*part8	*part7	*part7	*part6	*part6	*part5	*part5	*part5	*part4	*part4	*part4	*part3	*part3	*part3	*part2	*part2	*part2	*part1	*part1	*part1
*staff13	*	*staff12	*	*staff11	*	*staff10	*	*staff9	*	*staff8	*staff7	*staff6	*staff5	*	*staff4	*staff4	*	*staff3	*staff3	*	*staff2	*staff2	*	*staff1	*staff1	*
*I"[Contrabass]	*	*I"[Violoncello]	*	*I"[Viola]	*	*I"[Violino 2]	*	*I"V. 1.	*	*I"Physharmonica	*I"Physharmonica	*I"Organ.	*I"Organ.	*	*I"[Basso]	*	*	*I"[Tenore]	*	*	*I"[Alto]	*	*	*I"[Soprano]	*	*
*clefF4	*	*clefF4	*	*clefC3	*	*clefG2	*	*clefG2	*	*clefF4	*clefG2	*clefF4	*clefG2	*	*clefF4	*	*	*clefG2	*	*	*clefG2	*	*	*clefG2	*	*
*Trd0c0	*	*	*	*	*	*	*	*	*	*	*	*	*	*	*	*	*	*ITrd8c12	*	*	*	*	*	*	*	*
*k[b-e-a-]	*	*k[b-e-a-]	*	*k[b-e-a-]	*	*k[b-e-a-]	*	*k[b-e-a-]	*	*k[b-e-a-]	*k[b-e-a-]	*k[b-e-a-]	*k[b-e-a-]	*	*k[b-e-a-]	*	*	*k[b-e-a-]	*	*	*k[b-e-a-]	*	*	*k[b-e-a-]	*	*
*E-:	*	*E-:	*	*E-:	*	*E-:	*	*E-:	*	*E-:	*E-:	*E-:	*E-:	*	*E-:	*	*	*E-:	*	*	*E-:	*	*	*E-:	*	*
*M4/4	*	*M4/4	*	*M4/4	*	*M4/4	*	*M4/4	*	*M4/4	*M4/4	*M4/4	*M4/4	*	*M4/4	*	*	*M4/4	*	*	*M4/4	*	*	*M4/4	*	*
*met(c)	*	*met(c)	*	*met(c)	*	*met(c)	*	*met(c)	*	*met(c)	*met(c)	*met(c)	*met(c)	*	*met(c)	*	*	*met(c)	*	*	*met(c)	*	*	*met(c)	*	*
*all\right	*	*all\right	*	*all\right	*	*all\right	*	*all\right	*	*all\right	*all\right	*all\right	*all\right	*	*all\right	*	*	*all\right	*	*	*all\right	*	*	*all\right	*	*
=1	=1	=1	=1	=1	=1	=1	=1	=1	=1	=1	=1	=1	=1	=1	=1	=1	=1	=1	=1	=1	=1	=1	=1	=1	=1	=1
*	*	*	*	*	*	*	*	*	*	*	*	*^	*	*	*	*	*	*	*	*	*	*	*	*	*	*
!	!	!	!LO:DY:rj	!	!LO:DY:rj	!	!LO:DY:rj	!	!LO:DY:rj	!	!	!	!	!	!LO:DY:rj	!	!	!	!	!	!	!	!	!	!	!	!
2r	.	4..B- 4..G\	ff	4..e- 4..G/	ff	4..ee- 4..g 4..G/	ff	4..gg 4..b- 4..e-\	ff	1ryy	1ryy	4..e- 4..B- 4..G\	1rFF	4..gg 4..ee- 4..b- 4..g\	ff	1r	.	.	1r	.	.	1r	.	.	1r	.	.
.	.	16B-\	.	16e- 16G/	.	16ee- 16g/	.	16gg 16b-\	.	.	.	16e- 16B- 16G\	.	16gg 16ee- 16b- 16g\	.	.	.	.	.	.	.	.	.	.	.	.	.
8r	.	8B-\	.	8e- 8G/	.	8ee- 8g/	.	8gg 8b-\	.	.	.	4e- 4B- 4G\	.	4gg 4ee- 4b- 4g\	.	.	.	.	.	.	.	.	.	.	.	.	.
!LO:TX:b:i:t=Col Vceli	!	!	!	!	!	!	!	!	!	!	!	!	!	!	!	!	!	!	!	!	!	!	!	!	!	!	!
8BB-^^\Lyy	.	8BB-^^\L	.	8B-^^/L	.	8B-^^/L	.	8B-^^/L	.	.	.	.	.	.	.	.	.	.	.	.	.	.	.	.	.	.	.
8E-^^\yy	.	8E-^^\	.	8E-^^/	.	8e-^^/	.	8e-^^/	.	.	.	4r	.	4r	.	.	.	.	.	.	.	.	.	.	.	.	.
8F^^\Jyy	.	8F^^\J	.	8F^^/J	.	8f^^/J	.	8f^^/J	.	.	.	.	.	.	.	.	.	.	.	.	.	.	.	.	.	.	.
=2	=2	=2	=2	=2	=2	=2	=2	=2	=2	=2	=2	=2	=2	=2	=2	=2	=2	=2	=2	=2	=2	=2	=2	=2	=2	=2	=2
!	!	!	!	!	!	!	!	!	!	!	!	!	!	!	!	!	!	!LO:DY:a:rj	!	!	!LO:DY:a:rj	!	!	!LO:DY:a:rj	!	!	!LO:DY:a:rj
*2\right	*	*2\right	*	*	*	*	*	*	*	*	*	*	*	*	*	*	*	*	*	*	*	*	*	*	*	*	*
[y2G^^\yy	.	[2G^^\	.	2G^^/	.	4..g^^/	.	4..g^^/	.	1ryy	1ryy	4..B- 4..G\	1rFF	4..b- 4..g 4..e-/	.	4..G\	Gl[o]-	ff	4..B-\	Gl[o]-	ff	4..e-/	Glo-	ff	4..b-\	Glo-	ff
*	*	*	*	*	*	*	*	*	*	*	*	*	*	*	*	*	*ij	*	*	*ij	*	*	*ij	*	*	*	*
.	.	.	.	.	.	16e- 16G/	.	16g 16B-/	.	.	.	16B- 16G\	.	16b- 16g 16e-/	.	16G\	-ri-	.	16B-\	-ri-	.	16e-/	-ri-	.	16b-\	-ri-	.
8G\L]yy	.	8G\L]	.	8G/L	.	8e- 8G/	.	8g 8B-/	.	.	.	4B- 4G\	.	4b- 4g 4e-/	.	4G\	-a	.	4B-\	-a	.	4e-/	-a	.	4b-\	-a,	.
8E-^^\yy	.	8E-^^\	.	8E-^^/	.	8e-^^/L	.	8e-^^/L	.	.	.	.	.	.	.	.	.	.	.	.	.	.	.	.	.	.	.
8G^^\yy	.	8G^^\	.	8G^^/	.	8g^^/	.	8g^^/	.	.	.	4r	.	4r	.	4r	.	.	4r	.	.	4r	.	.	4r	.	.
8A-^^\Jyy	.	8A-^^\J	.	8A-^^/J	.	8a-^^/J	.	8a-^^/J	.	.	.	.	.	.	.	.	.	.	.	.	.	.	.	.	.	.	.
=3	=3	=3	=3	=3	=3	=3	=3	=3	=3	=3	=3	=3	=3	=3	=3	=3	=3	=3	=3	=3	=3	=3	=3	=3	=3	=3	=3
[y2B-^^\yy	.	[2B-^^\	.	[2B-^^/	.	4..b-^^/	.	4..b-^^\	.	1ryy	1ryy	4..e- 4..B-\	1rFF	4..ee- 4..b- 4..g\	.	4..B-\	glo-	.	4..e-\	glo-	.	4..g/	glo-	.	4..ee-\	glo-	.
.	.	.	.	.	.	16b- 16g/	.	16ee- 16e-/	.	.	.	16e- 16B-\	.	16ee- 16b- 16g\	.	16B-\	-ri-	.	16e-\	-ri-	.	16g/	-ri-	.	16ee-\	-ri-	.
8B-\L]yy	.	8B-\L]	.	8B-/L]	.	8b- 8g/	.	8ee- 8e-/	.	.	.	4e- 4B-\	.	4ee- 4b- 4g\	.	4B-\	-a	.	4e-\	-a	.	4g/	-a	.	4ee-\	-a	.
8c^^\yy	.	8c^^\	.	8c^^/	.	8cc^^/L	.	8cc^^/L	.	.	.	.	.	.	.	.	.	.	.	.	.	.	.	.	.	.	.
8B-^^\yy	.	8B-^^\	.	8B-^^/	.	8b-^^/	.	8b-^^/	.	.	.	4r	.	4r	.	4r	.	.	4r	.	.	4r	.	.	4r	.	.
8G^^\Jyy	.	8G^^\J	.	8G^^/J	.	8g^^/J	.	8g^^/J	.	.	.	.	.	.	.	.	.	.	.	.	.	.	.	.	.	.	.
=4	=4	=4	=4	=4	=4	=4	=4	=4	=4	=4	=4	=4	=4	=4	=4	=4	=4	=4	=4	=4	=4	=4	=4	=4	=4	=4	=4
4E-^^\yy	.	4E-^^\	.	4E-^^/	.	4e-^/	.	4e-^/	.	1ryy	1ryy	4r	2rFF	4r	.	4r	.	.	4r	.	.	4r	.	.	4r	.	.
8.D\Lyy	.	8.D\L	.	8.D^^/L	.	8.d^/L	.	8.d^/L	.	.	.	8.B-\L	.	8.b-\L	.	8.B-\	in	.	8.B-\	in	.	8.b-\	in	.	8.b-\	in	.
16BB-\Jkyy	.	16BB-\Jk	.	16C/Jk	.	16c/Jk	.	16c/Jk	.	.	.	16e-Jk 16B-\	.	16ee-Jk 16b- 16g\	.	16B-\	ex-	.	16B-\	ex-	.	16b-\	ex-	.	16ee-\	ex-	.
4BB-'/yy	.	4BB-'/	.	4E-'/	.	4B-'/	.	4B-'/	.	.	.	4e- 4B-\	4r	4ee- 4b- 4g\	.	4B-^^\	-cel-	.	4e-^^\	-cel-	.	4g^^\	-cel-	.	4ee-^^\	-cel-	.
4BB-^^/yy	.	4BB-^^/	.	4B-^^/	.	4B-/	.	4B-^^/	.	.	.	4d 4B- 4F/	4BB-\	4ff 4dd 4b- 4f\	.	4B-^^\	-sis	.	4e-^^\	-sis	.	4b-^^\	-sis	.	4ff^^\	-sis	.
=5	=5	=5	=5	=5	=5	=5	=5	=5	=5	=5	=5	=5	=5	=5	=5	=5	=5	=5	=5	=5	=5	=5	=5	=5	=5	=5	=5
*	*	*	*	*	*	*	*	*	*	*	*	*2\right	*	*	*	*2\right	*	*	*2\right	*	*	*2\right	*	*	*2\right	*	*
2E-^^\	.	2BB-^^/	.	2E-^^/	.	2G^^/	.	2B-^^/	.	1ryy	1ryy	2e- 2B- 2G 2E-/	[2EE-\	2gg 2ee- 2b- 2g/	.	2E-^^\	De-	.	2e-^^\	De-	.	2b-^^\	De-	.	2gg^^\	De-	.
8r	.	8r	.	8r	.	8r	.	8r	.	.	.	8B- 8E-/	8EE-\]	8ee- 8g\	.	8E-\	-o,	.	8e-\	-o,	.	8g/	-o,	.	8ee-\	-o,	.
8BB-^^/L	.	8BB-^^/L	.	8B-^^/L	.	8B-^^/L	.	8B-^^/L	.	.	.	8r	8rEEyy	8r	.	8r	.	.	8r	.	.	8r	.	.	8r	.	.
8E-^^/	.	8E-^^/	.	8E-^^/	.	8e-^^/	.	8e-^^/	.	.	.	4r	4rEEyy	4r	.	4r	.	.	4r	.	.	4r	.	.	4r	.	.
8F^^/J	.	8F^^/J	.	8F^^/J	.	8f^^/J	.	8f^^/J	.	.	.	.	.	.	.	.	.	.	.	.	.	.	.	.	.	.	.
=6	=6	=6	=6	=6	=6	=6	=6	=6	=6	=6	=6	=6	=6	=6	=6	=6	=6	=6	=6	=6	=6	=6	=6	=6	=6	=6	=6
[2G^^\	.	[2G^^\	.	[2G/	.	4..g^^/	.	4..g^^/	.	1ryy	1ryy	4..d 4..B- 4..G/	2GG\	4..gg 4..dd 4..b- 4..g/	.	4..G\	glo-	.	4..d\	glo-	.	4..b-\	glo-	.	4..gg\	glo-	.
.	.	.	.	.	.	16g 16B-/	.	16b- 16d/	.	.	.	16d 16B- 16G/	.	16dd 16b- 16g/	.	16G\	-ri-	.	16d\	-ri-	.	16b-\	-ri-	.	16dd\	-ri-	.
8G\]	.	8G\]	.	8G/]	.	8g 8B-/	.	8b- 8d/	.	.	.	4d 4B- 4G/	2rFF	4dd 4b- 4g/	.	4G\	-a	.	4d\	-a	.	4b-\	-a	.	4dd\	-a	.
*	*	*	*	*	*	*	*	*	*	*	*	*	*	*	*	*	*Xij	*	*	*Xij	*	*	*Xij	*	*	*	*
8D^^\L	.	8D^^\L	.	8D^^/L	.	8d/L	.	8d^^/L	.	.	.	.	.	.	.	.	.	.	.	.	.	.	.	.	.	.	.
8G^^\	.	8G^^\	.	8G^^/	.	8g/	.	8g^^/	.	.	.	4r	.	4r	.	4r	.	.	4r	.	.	4r	.	.	4r	.	.
8An^^\J	.	8An^^\J	.	8An^^/J	.	8an/J	.	8an^^/J	.	.	.	.	.	.	.	.	.	.	.	.	.	.	.	.	.	.	.
!!LO:PB:g=original
=7	=7	=7	=7	=7	=7	=7	=7	=7	=7	=7	=7	=7	=7	=7	=7	=7	=7	=7	=7	=7	=7	=7	=7	=7	=7	=7	=7
!LO:TX:b:i:t=Col Vceli	!	!	!	!	!	!	!	!	!	!	!	!	!	!	!	!	!	!	!	!	!	!	!	!	!	!	!
[y2B-^\yy	.	[2B-^\	.	[2B-^/	.	4..b-\yy	.	4..b-\	.	1ryy	1ryy	4..d 4..B- 4..F/	2BB-\	4..ff 4..dd 4..b- 4..f/	.	4..B-\	Glo-	.	4..d\	Glo-	.	4..b-\	Glo-	.	4..ff\	Glo-	.
*	*	*	*	*	*	*	*	*	*	*	*	*	*	*	*	*	*ij	*	*	*ij	*	*	*ij	*	*	*	*
.	.	.	.	.	.	16b- 16d/	.	16dd 16f/	.	.	.	16d 16B-/	.	16dd 16b- 16f/	.	16B-\	-ri-	.	16d\	-ri-	.	16f/	-ri-	.	16b-\	-ri-	.
8B-\L]yy	.	8B-\L]	.	8B-/L]	.	8b- 8d/	.	8dd 8f/	.	.	.	4d 4B-/	2rEEyy	4dd 4b- 4f/	.	4B-\	-a	.	4d\	-a	.	4f/	-a	.	4b-\	-a	.
8c^^\yy	.	8c^^\	.	8c^^/	.	8cc^^\Lyy	.	8cc^^\L	.	.	.	.	.	.	.	.	.	.	.	.	.	.	.	.	.	.	.
8B-^^\yy	.	8B-^^\	.	8B-^^/	.	8b-^^\yy	.	8b-^^\	.	.	.	4r	.	4r	.	4r	.	.	4r	.	.	4r	.	.	4r	.	.
8G^^\Jyy	.	8G^^\J	.	8G^^/J	.	8g^^\Jyy	.	8g^^\J	.	.	.	.	.	.	.	.	.	.	.	.	.	.	.	.	.	.	.
=8	=8	=8	=8	=8	=8	=8	=8	=8	=8	=8	=8	=8	=8	=8	=8	=8	=8	=8	=8	=8	=8	=8	=8	=8	=8	=8	=8
4F^\yy	.	4F^\	.	4F^/	.	4f^/yy	.	4f^/	.	1ryy	1ryy	4rF	4rEEyy	4r	.	4r	.	.	4r	.	.	4r	.	.	4r	.	.
8.E-^\Lyy	.	8.E-^\L	.	8.E-^/L	.	8e-/Lyy	.	8e-/L	.	.	.	8.cL 8.An/	8.E-\L	8.ffL 8.cc 8.an\	.	8.c\	in	.	8.e-\	in	.	8.an/	in	.	8.cc\	in	.
.	.	.	.	.	.	8d/Jyy	.	8d/J	.	.	.	.	.	.	.	.	.	.	.	.	.	.	.	.	.	.	.
16D\Jkyy	.	16D\Jk	.	16D/Jk	.	.	.	.	.	.	.	16dJk 16B-/	16D\Jk	16ffJk 16dd 16b-\	.	16B-\	ex-	.	16d\	ex-	.	16b-/	ex-	.	16dd\	ex-	.
4C|\yy	.	4C|\	.	4C'/	.	4B-/yy	.	4B-/yy	.	.	.	4e- 4c/	4C\	4ff 4ee- 4cc\	.	4An\	-cel-	.	4c\	-cel-	.	4cc\	-cel-	.	4ee-\	-cel-	.
4F^^\yy	.	4F^^\	.	4F^^/	.	4e-/yy	.	4e-/yy	.	.	.	4F/	4F\	4ff 4f\	.	4F\	-sis	.	4f\	-sis	.	4f/	-sis	.	4ff\	-sis	.
=9	=9	=9	=9	=9	=9	=9	=9	=9	=9	=9	=9	=9	=9	=9	=9	=9	=9	=9	=9	=9	=9	=9	=9	=9	=9	=9	=9
*	*	*	*	*	*	*	*	*	*	*	*	*	*	*	*	*	*	*	*	*	*	*	*	*	*^	*	*
*	*	*	*	*2\right	*	*	*	*	*	*	*	*	*	*	*	*	*	*	*	*	*	*	*	*	*	*	*	*
*	*	*	*	*tremolo	*	*tremolo	*	*2\right	*	*	*	*	*	*2\right	*	*	*	*	*	*	*	*	*	*	*	*	*	*
!	!	!	!	!	!	!	!	!	!	!	!	!	!	!	!	!	!	!	!	!	!	!	!	!	!LO:TX:a:i:t=Solo	!	!	!
!	!	!	!	!	!	!LO:N:n=3:vis=4	!	!LO:N:n=3:vis=4	!	!	!	!	!	!	!	!	!	!LO:DY:b:rj	!	!	!LO:DY:b:rj	!	!	!LO:DY:b:rj	!LO:TX:b:i:t=tutti	!	!	!LO:DY:b:rj
8BB-/L	.	8BB-\L	.	32b-LLL 32d\	.	32ddLLL 32f 32B-/	.	[2bb- 2b- 2d\	.	1ryy	1ryy	[2.f [2.d [2.B- [2.F/	1BB-	[2bb- [2ff [>2dd [2b-\	.	1B-	De-	fff	1f	De-	fff	1b-	De-	fff	1bb-	1dd	De-	fff
.	.	.	.	32b- 32d\	.	32dd 32f 32B-/	.	.	.	.	.	.	.	.	.	.	.	.	.	.	.	.	.	.	.	.	.	.
.	.	.	.	32b- 32d\	.	32dd 32f 32B-/	.	.	.	.	.	.	.	.	.	.	.	.	.	.	.	.	.	.	.	.	.	.
.	.	.	.	32b- 32d\	.	32dd 32f 32B-/	.	.	.	.	.	.	.	.	.	.	.	.	.	.	.	.	.	.	.	.	.	.
8D/	.	8D\	.	32b- 32d\	.	32dd 32f 32B-/	.	.	.	.	.	.	.	.	.	.	.	.	.	.	.	.	.	.	.	.	.	.
.	.	.	.	32b- 32d\	.	32dd 32f 32B-/	.	.	.	.	.	.	.	.	.	.	.	.	.	.	.	.	.	.	.	.	.	.
.	.	.	.	32b- 32d\	.	32dd 32f 32B-/	.	.	.	.	.	.	.	.	.	.	.	.	.	.	.	.	.	.	.	.	.	.
.	.	.	.	32b- 32d\	.	32dd 32f 32B-/	.	.	.	.	.	.	.	.	.	.	.	.	.	.	.	.	.	.	.	.	.	.
8F/	.	8F\	.	32b- 32d\	.	32dd 32f 32B-/	.	.	.	.	.	.	.	.	.	.	.	.	.	.	.	.	.	.	.	.	.	.
.	.	.	.	32b- 32d\	.	32dd 32f 32B-/	.	.	.	.	.	.	.	.	.	.	.	.	.	.	.	.	.	.	.	.	.	.
.	.	.	.	32b- 32d\	.	32dd 32f 32B-/	.	.	.	.	.	.	.	.	.	.	.	.	.	.	.	.	.	.	.	.	.	.
.	.	.	.	32b- 32d\	.	32dd 32f 32B-/	.	.	.	.	.	.	.	.	.	.	.	.	.	.	.	.	.	.	.	.	.	.
8D/J	.	8D\J	.	32b- 32d\	.	32dd 32f 32B-/	.	.	.	.	.	.	.	.	.	.	.	.	.	.	.	.	.	.	.	.	.	.
.	.	.	.	32b- 32d\	.	32dd 32f 32B-/	.	.	.	.	.	.	.	.	.	.	.	.	.	.	.	.	.	.	.	.	.	.
.	.	.	.	32b- 32d\	.	32dd 32f 32B-/	.	.	.	.	.	.	.	.	.	.	.	.	.	.	.	.	.	.	.	.	.	.
.	.	.	.	32b-JJJ 32d\	.	32ddJJJ 32f 32B-/	.	.	.	.	.	.	.	.	.	.	.	.	.	.	.	.	.	.	.	.	.	.
*	*	*	*	*Xtremolo	*	*Xtremolo	*	*	*	*	*	*	*	*	*	*	*	*	*	*	*	*	*	*	*	*	*	*
8B-\	.	8B-\L	.	8b-L 8d\	.	8dd 8f/	.	8bb-\L]	.	.	.	.	.	8bb-]L 8ff] 8dd] 8b-\]	.	.	.	.	.	.	.	.	.	.	.	.	.	.
8r	.	16F\L	.	16f\L	.	16ff\LL	.	16ff\L	.	.	.	.	.	(8ff 8dd\	.	.	.	.	.	.	.	.	.	.	.	.	.	.
.	.	16D\JJ	.	16d\JJ	.	16dd\JJ	.	16dd\JJ	.	.	.	.	.	.	.	.	.	.	.	.	.	.	.	.	.	.	.	.
8B-\L	.	8B-\L	.	8B-/L	.	8b-/L	.	8b-/L	.	.	.	8f]L 8d] 8B-] 8F\]	.	8dd 8b-\)	.	.	.	.	.	.	.	.	.	.	.	.	.	.
16F\L	.	16F\L	.	16F/L	.	16f/L	.	16f/L	.	.	.	8B-\J	.	8ddJ 8f\	.	.	.	.	.	.	.	.	.	.	.	.	.	.
16D\JJ	.	16D\JJ	.	16D/JJ	.	16d/JJ	.	16d/JJ	.	.	.	.	.	.	.	.	.	.	.	.	.	.	.	.	.	.	.	.
*	*	*	*	*	*	*	*	*	*	*	*	*	*	*	*	*	*Xij	*	*	*Xij	*	*	*Xij	*	*	*	*	*
=10	=10	=10	=10	=10	=10	=10	=10	=10	=10	=10	=10	=10	=10	=10	=10	=10	=10	=10	=10	=10	=10	=10	=10	=10	=10	=10	=10	=10
*	*	*	*	*	*	*	*	*	*	*	*	*	*	*^	*	*	*	*	*	*	*	*^	*	*	*	*	*	*
2BB-/	.	4..BB-/	.	4..B-/	.	4..B-/	.	4..B-/	.	1ryy	1ryy	2B- 2F/	2BB-\	2b-/	2d/	.	4BB-/	-o!	.	4B-\	-o!	.	4b-/	1r	-o!	.	4b-/	4b-\	-o!	.
.	.	.	.	.	.	.	.	.	.	.	.	.	.	.	.	.	4r	.	.	4r	.	.	4r	.	.	.	4r	4ryy	.	.
.	.	16BB-/	.	16B-/	.	16B-/	.	16B-/	.	.	.	.	.	.	.	.	.	.	.	.	.	.	.	.	.	.	.	.	.	.
2r	.	8BB-/	.	8B-/	.	8B-/	.	8B-/	.	.	.	2r	2rEEyy	4r	4ryy	.	2r	.	.	2r	.	.	4r	.	.	.	2r	2ryy	.	.
.	.	8r	.	8r	.	8r	.	8r	.	.	.	.	.	.	.	.	.	.	.	.	.	.	.	.	.	.	.	.	.	.
!	!	!	!	!	!	!	!	!	!	!	!	!	!	!	!	!LO:DY:rj	!	!	!	!	!	!	!LO:TX:a:i:t=Solo:note=podkreślone na czerwono	!	!	!	!	!	!	!
.	.	4r	.	4r	.	4r	.	4r	.	.	.	.	.	(<[<4b-/	4r	p	.	.	.	.	.	.	8.b-/	.	et	.	.	.	.	.
.	.	.	.	.	.	.	.	.	.	.	.	.	.	.	.	.	.	.	.	.	.	.	16b-/	.	in	.	.	.	.	.
*	*	*	*	*	*	*	*	*	*	*	*	*v	*v	*	*	*	*	*	*	*	*	*	*	*	*	*	*	*	*	*
=11	=11	=11	=11	=11	=11	=11	=11	=11	=11	=11	=11	=11	=11	=11	=11	=11	=11	=11	=11	=11	=11	=11	=11	=11	=11	=11	=11	=11	=11
*	*	*	*	*	*	*	*	*	*	*	*	*	*	*	*	*	*	*	*	*	*	*	*	*above	*	*	*	*	*
1ryy	.	1ryy	.	1ryy	.	1ryy	.	1ryy	.	1ryy	1ryy	1r	4b-/]	1ryy	.	1r	.	.	1r	.	.	4b-/	1r	ter-	.	1re	1r	.	.
.	.	.	.	.	.	.	.	.	.	.	.	.	4cc/	.	.	.	.	.	.	.	.	4cc/	.	-ra	.	.	.	.	.
.	.	.	.	.	.	.	.	.	.	.	.	.	4b-/	.	.	.	.	.	.	.	.	4b-/	.	pax	.	.	.	.	.
.	.	.	.	.	.	.	.	.	.	.	.	.	4cc/	.	.	.	.	.	.	.	.	4cc/	.	ho-	.	.	.	.	.
*	*	*	*	*	*	*	*	*	*	*	*	*	*	*	*	*	*	*	*	*	*	*	*	*	*	*v	*v	*	*
=12	=12	=12	=12	=12	=12	=12	=12	=12	=12	=12	=12	=12	=12	=12	=12	=12	=12	=12	=12	=12	=12	=12	=12	=12	=12	=12	=12	=12
*	*	*	*	*	*	*	*	*	*	*	*	*^	*	*	*	*	*	*	*^	*	*	*	*	*^	*	*	*	*
1ryy	.	1ryy	.	2r	.	2r	.	1ryy	.	1ryy	1ryy	2r	1rFF	2r	1b-)	.	2r	.	.	1ryy	2rf	.	.	4.b-/	2r	-mi-	.	.	2r	.	.
.	.	.	.	.	.	.	.	.	.	.	.	.	.	.	.	.	.	.	.	.	.	.	.	8b-/	.	-ni-	.	.	.	.	.
*	*	*	*	*	*	*2\right	*	*	*	*	*	*	*	*	*	*	*	*	*	*	*	*	*	*	*	*	*	*	*	*	*
!	!	!	!	!	!LO:DY:rj	!	!LO:DY:rj	!	!	!	!	!	!	!	!	!	!	!	!	!	!	!	!	!LO:TX:b:i:t=tutti:note=podkreślone na czerwono	!	!	!	!LO:DY:b:t=pp.	!	!	!
.	.	.	.	[2b-^\	p	[2b-^\	p	.	.	.	.	4r	.	4r	.	.	4r	.	.	.	4rf	.	.	4b-/	[>2b-\	-bus	pax	pp	4r	.	.
!	!	!	!	!	!	!	!	!	!	!	!	!	!	!	!	!	!	!	!LO:DY:a:rj:t=pp.	!	!	!	!LO:DY:a:rj	!	!	!	!	!	!LO:TX:a:i:t=tutti	!	!
.	.	.	.	.	.	.	.	.	.	.	.	([4B- [4G-X\	.	([4dd-X/	.	.	8G-X\	et	pp	.	8B-\	et	pp	4r	.	.	.	.	8dd-X/	et	.
!	!	!	!	!	!	!	!	!	!	!	!	!	!	!	!	!	!	!	!	!	!	!	!	!	!	!	!	!	!	!	!LO:DY:a:rj:t=pp.
.	.	.	.	.	.	.	.	.	.	.	.	.	.	.	.	.	8G-\	in	.	.	8B-/	in	.	.	.	.	.	.	8dd-/	in	pp
*	*	*	*	*	*	*	*	*	*	*	*	*	*	*	*	*	*	*	*	*	*	*	*	*	*	*v	*v	*	*	*	*
=13	=13	=13	=13	=13	=13	=13	=13	=13	=13	=13	=13	=13	=13	=13	=13	=13	=13	=13	=13	=13	=13	=13	=13	=13	=13	=13	=13	=13	=13	=13
1ryy	.	1ryy	.	8b-\]	.	8b-\]	.	1ryy	.	1ryy	1ryy	4B-] 4G-X\]	1rFF	4dd-/]	4b-\	.	4G-X\	ter-	.	1ryy	4B-\	ter-	.	1ryy	4b-\]	.	.	4dd-X\	ter-	.
.	.	.	.	8r	.	8r	.	.	.	.	.	.	.	.	.	.	.	.	.	.	.	.	.	.	.	.	.	.	.	.
*	*	*	*	*	*	*	*	*	*	*	*	*	*	*	*	*	*	*	*	*	*	*	*	*	*	*below	*	*	*	*
.	.	.	.	4r	.	4r	.	.	.	.	.	4c 4F\	.	4ee-/	4a-\	.	4F\	-ra	.	.	4c\	-ra	.	.	4an\	in	.	4ee-\	-ra	.
.	.	.	.	2r	.	2r	.	.	.	.	.	4B- 4G-\	.	4dd-X/	4b-\	.	4G-\	pax	.	.	4B-\	pax	.	.	4b-\	ter-	.	4dd-\	pax	.
.	.	.	.	.	.	.	.	.	.	.	.	4c 4F\	.	4ee-/	4a-\	.	4F\	ho-	.	.	4c\	ho-	.	.	4a\	-ra	.	4ee-\	ho-	.
=14	=14	=14	=14	=14	=14	=14	=14	=14	=14	=14	=14	=14	=14	=14	=14	=14	=14	=14	=14	=14	=14	=14	=14	=14	=14	=14	=14	=14	=14	=14
!	!	!	!	!	!	!	!	!	!	!	!	!	!LO:N:vis=1	!	!	!	!	!	!	!	!	!	!	!	!	!	!	!	!	!
1ryy	.	1ryy	.	1ryy	.	1ryy	.	1ryy	.	1ryy	1ryy	2.B- 2.G-X\)	2.rFF	2.dd-X/)	2.b-\	.	4.G-X\	-mi-	.	2rff	4.B-\	-mi-	.	1ryy	2b-\	pax	.	4.dd-X\	-mi-	.
.	.	.	.	.	.	.	.	.	.	.	.	.	.	.	.	.	8G-\	-ni-	.	.	8B-\	-ni-	.	.	.	.	.	8dd-\	-ni-	.
.	.	.	.	.	.	.	.	.	.	.	.	.	.	.	.	.	4G-\	-bus	.	4rff	4B-\	-bus	.	.	2r	.	.	4dd-\	-bus	.
*	*	*	*	*	*	*	*	*	*	*	*	*	*	*	*	*	*	*	*	*	*	*above	*	*	*	*	*	*	*	*
!	!	!	!	!	!	!	!	!	!	!	!	!LO:TX:a:t=P:problem:brak początku łuku	!	!	!	!	!	!	!	!LO:TX:a:i:t=Solo:note=podkreślone na czerwono	!	!	!	!	!	!	!	!	!	!
.	.	.	.	.	.	.	.	.	.	.	.	([4B-/	4r	4r	4ryy	.	4r	.	.	8B-/	4r	et	.	.	.	.	.	4r	.	.
.	.	.	.	.	.	.	.	.	.	.	.	.	.	.	.	.	.	.	.	8B-/	.	in	.	.	.	.	.	.	.	.
*	*	*	*	*	*	*	*	*	*	*	*	*	*	*v	*v	*	*	*	*	*	*	*	*	*v	*v	*	*	*	*	*
!!LO:PB:g=original
=15	=15	=15	=15	=15	=15	=15	=15	=15	=15	=15	=15	=15	=15	=15	=15	=15	=15	=15	=15	=15	=15	=15	=15	=15	=15	=15	=15	=15
1r	.	1r	.	1ryy	.	1ryy	.	1ryy	.	1ryy	1ryy	4B-/]	1rFF	1r	.	1r	.	.	4B-/	1r	ter-	.	1r	.	.	1r	.	.
.	.	.	.	.	.	.	.	.	.	.	.	4c/	.	.	.	.	.	.	4c/	.	-ra	.	.	.	.	.	.	.
.	.	.	.	.	.	.	.	.	.	.	.	4B-/	.	.	.	.	.	.	4B-/	.	pax	.	.	.	.	.	.	.
.	.	.	.	.	.	.	.	.	.	.	.	4c/	.	.	.	.	.	.	4c/	.	ho-	.	.	.	.	.	.	.
=16	=16	=16	=16	=16	=16	=16	=16	=16	=16	=16	=16	=16	=16	=16	=16	=16	=16	=16	=16	=16	=16	=16	=16	=16	=16	=16	=16	=16
*	*	*	*	*	*	*	*	*	*	*	*	*	*^	*	*	*	*	*	*	*	*^	*	*	*	*	*	*	*
1r	.	2r	.	2r	.	1ryy	.	1ryy	.	1ryy	1ryy	1B-)	2r	1rFF	2r	.	2r	.	.	4.B-/	2r	-mi-	.	.	2r	.	.	2r	.	.
!	!	!	!	!	!	!	!	!	!	!	!	!	!	!	!	!	!	!	!	!	!	!	!	!LO:DY:b:t=pp.	!	!	!	!	!	!
.	.	.	.	.	.	.	.	.	.	.	.	.	.	.	.	.	.	.	.	8B-/	.	-ni-	.	pp	.	.	.	.	.	.
!	!	!	!LO:DY:rj	!	!LO:DY:t=p.	!	!	!	!	!	!	!	!	!	!	!	!	!	!	!LO:TX:b:i:t=tutti:note=podkreślone na czerwono	!	!	!	!	!	!	!	!	!	!
.	.	[2B-^\	p	[2B-^/	p	.	.	.	.	.	.	.	4r	.	4r	.	4r	.	.	(4B-/	[2B-\	-bus	pax	.	4r	.	.	4r	.	.
!	!	!	!	!	!	!	!	!	!	!	!	!	!	!	!	!	!	!	!LO:DY:b:rj	!	!	!	!	!	!	!	!LO:DY:a:rj	!	!	!LO:DY:a
.	.	.	.	.	.	.	.	.	.	.	.	.	4G\	.	([4dd [>4b-/	.	8Gn\	et	pp	4rff	.	.	.	.	8b-\	et	pp	8ddn\	et	pp
*	*	*	*	*	*	*	*	*	*	*	*	*	*	*	*	*	*	*	*	*	*	*	*	*	*	*ij	*	*	*	*
.	.	.	.	.	.	.	.	.	.	.	.	.	.	.	.	.	8G\	in	.	.	.	.	.	.	8b-\	in	.	8dd\	in	.
*	*	*	*	*	*	*	*	*	*	*	*	*v	*v	*v	*	*	*	*	*	*	*	*v	*v	*	*	*	*	*	*	*
=17	=17	=17	=17	=17	=17	=17	=17	=17	=17	=17	=17	=17	=17	=17	=17	=17	=17	=17	=17	=17	=17	=17	=17	=17	=17	=17	=17
1r	.	8B-\]	.	8B-/]	.	1ryy	.	1ryy	.	1ryy	1ryy	4B- 4G/	4dd] 4b-\]	.	4G\	ter-	.	1ryy	4B-\]	.	.	4b-\	ter-	.	4dd\	ter-	.
.	.	8r	.	8r	.	.	.	.	.	.	.	.	.	.	.	.	.	.	.	.	.	.	.	.	.	.	.
.	.	4r	.	4r	.	.	.	.	.	.	.	4An 4F#X/	4ee- 4cc\	.	4F#X\	-ra	.	.	4A\)	.	.	4cc\	-ra	.	4ee-\	-ra	.
*	*	*	*	*	*	*	*	*	*	*	*	*	*	*	*	*	*	*	*	*below	*	*	*	*	*	*	*
.	.	2r	.	2r	.	.	.	.	.	.	.	4B- 4G/	4dd 4b-\	.	4G\	pax	.	.	4B-\	pax	.	4b-\	pax	.	4dd\	pax	.
*	*	*	*	*	*	*	*	*	*	*	*	*	*	*	*	*ij	*	*	*	*	*	*	*	*	*	*	*
.	.	.	.	.	.	.	.	.	.	.	.	4A 4F#/	4ee- 4cc\	.	4F#\	ho-	.	.	4A\	ho-	.	4cc\	ho-	.	4ee-\	ho-	.
=18	=18	=18	=18	=18	=18	=18	=18	=18	=18	=18	=18	=18	=18	=18	=18	=18	=18	=18	=18	=18	=18	=18	=18	=18	=18	=18	=18
*	*	*	*	*	*	*	*	*	*	*	*	*^	*^	*	*	*	*	*	*	*	*	*	*	*	*	*	*
*	*	*	*	*	*	*	*	*	*	*	*	*	*^	*	*	*	*	*	*	*	*	*	*	*	*	*	*	*	*
1r	.	2r	.	2r	.	2r	.	2r	.	1ryy	1ryy	2.B- 2.G/	2r	1rFF	2.dd/)	2.b-\	.	4.G\	-mi-	.	1ryy	4.B-\	-mi-	.	4.b-\	-mi-	.	4.dd\	-mi-	.
.	.	.	.	.	.	.	.	.	.	.	.	.	.	.	.	.	.	8B-\	-ni-	.	.	8d\	-ni-	.	8g/	-ni-	.	8b-\	-ni-	.
.	.	4r	.	4r	.	4r	.	4r	.	.	.	.	4r	.	.	.	.	8G\	-bus	.	.	8B-\	-bus	.	8b-\	-bus	.	8dd\	-bus	.
.	.	.	.	.	.	.	.	.	.	.	.	.	.	.	.	.	.	8r	.	.	.	8r	.	.	8r	.	.	8r	.	.
!	!	!	!LO:DY:rj	!	!LO:DY:rj	!	!LO:DY:rj	!	!LO:DY:rj	!	!	!	!	!	!	!	!	!	!	!	!	!	!	!	!	!	!	!	!	!
.	.	4G\	p	4B-/	p	([4e-/	p	(8ee-\L	p	.	.	4B-/	4G\	.	(8ee-/L	4e-\	.	8G\	no-	.	.	8B-\	bo-	.	8b-/	bo-	.	8ee-\	bo-	.
*	*	*	*	*	*	*	*	*	*	*	*	*	*	*	*	*	*	*	*	*	*	*	*ij	*	*	*	*	*	*	*
.	.	.	.	.	.	.	.	8dd\J)	.	.	.	.	.	.	8dd/J	.	.	8G\	-nae	.	.	8B-\	-nae	.	8b-/	-nae	.	8dd\	-nae	.
*	*	*	*	*	*	*	*	*	*	*	*	*	*	*	*v	*v	*	*	*	*	*	*	*	*	*	*	*	*	*	*
=19	=19	=19	=19	=19	=19	=19	=19	=19	=19	=19	=19	=19	=19	=19	=19	=19	=19	=19	=19	=19	=19	=19	=19	=19	=19	=19	=19	=19	=19
1r	.	4A-\	.	(2c/	.	4e-/]	.	(4cc\	.	1ryy	1ryy	2c/	4A-\	1rFF	4cc 4e-/	.	4A-\	vo-	.	1ryy	4c\	vo-	.	4b-/	vo-	.	4cc\	vo-	.
.	.	4F\	.	.	.	4a-X/	.	4ff\	.	.	.	.	4F\	.	4ff 4a-/	.	4F\	-lun-	.	.	4c\	-lun-	.	4a-X/	-lun-	.	4ff\	-lun-	.
.	.	4B-\	.	4B-/	.	4g/)	.	4ee-\)	.	.	.	4B-/	4B-\	.	4ee- 4g/	.	2B-\	-ta-	.	.	(4B-/	-ta-	.	(4g/	-ta-	.	(4ee-\	-ta-	.
.	.	4BB-/	.	4A-/	.	4f/	.	4dd\	.	.	.	4B-/	4BB-\	.	4dd 4f/	.	.	.	.	.	4A-/)	.	.	4f/)	.	.	4dd\)	.	.
=20	=20	=20	=20	=20	=20	=20	=20	=20	=20	=20	=20	=20	=20	=20	=20	=20	=20	=20	=20	=20	=20	=20	=20	=20	=20	=20	=20	=20	=20
*	*	*	*	*	*	*	*	*	*	*	*	*	*	*	*^	*	*	*	*	*	*	*	*	*	*	*	*	*	*
2r	.	2E-\	.	2G/)	.	2e-/	.	(16ee-\LL	.	1ryy	1ryy	8G/	8E-\	2rDD	(<16ee-/LL	8e-\	.	4E-\	-tis	.	1ryy	4G/	-tis	.	4e-/	-tis	.	4ee-\	-tis	.
.	.	.	.	.	.	.	.	16ff\	.	.	.	.	.	.	16ff/	.	.	.	.	.	.	.	.	.	.	.	.	.	.	.
.	.	.	.	.	.	.	.	16ee-\	.	.	.	8r	8ryy	.	16ee-/	8r	.	.	.	.	.	.	.	.	.	.	.	.	.	.
.	.	.	.	.	.	.	.	16dd\JJ	.	.	.	.	.	.	16dd/JJ	.	.	.	.	.	.	.	.	.	.	.	.	.	.	.
.	.	.	.	.	.	.	.	8ee-\L	.	.	.	4rA	4rFF	.	8ee-/L	4r	.	4r	.	.	.	4r	.	.	4r	.	.	4r	.	.
.	.	.	.	.	.	.	.	8gg\J)	.	.	.	.	.	.	8gg/J	.	.	.	.	.	.	.	.	.	.	.	.	.	.	.
!	!	!	!	!	!	!	!	!	!	!	!	!LO:TX:b:i:t=ped.	!	!	!	!	!	!	!	!	!	!	!	!	!	!	!	!	!	!
4r	.	4r	.	4r	.	(8b-/L	.	(8b-/L	.	.	.	4r	4ryy	4ryy	8b-/))	4r	.	4r	.	.	.	4r	.	.	4r	.	.	4r	.	.
.	.	.	.	.	.	8g/)	.	8g/)	.	.	.	.	.	.	8r	.	.	.	.	.	.	.	.	.	.	.	.	.	.	.
4GG/	.	4B-\	.	4E-/	.	(8e-/	.	(8e-/	.	.	.	4B-/	4E-/	4GG\	[4b-/	8e-\L	.	8GG/	bo-	.	.	8B-\	bo-	.	8e-/	bo-	.	8b-/	bo-	.
.	.	.	.	.	.	8b-/J)	.	8d/J)	.	.	.	.	.	.	.	8d\J	.	8GG/	-nae	.	.	8B-\	-nae	.	8d/	-nae	.	8b-/	-nae	.
*	*	*	*	*	*	*	*	*	*	*	*	*	*v	*v	*	*	*	*	*	*	*	*	*	*	*	*	*	*	*	*
=21	=21	=21	=21	=21	=21	=21	=21	=21	=21	=21	=21	=21	=21	=21	=21	=21	=21	=21	=21	=21	=21	=21	=21	=21	=21	=21	=21	=21	=21
2AA-/	.	2c\	.	2E-/	.	(4b- 4g/	.	(4c/	.	1ryy	1ryy	2c 2E-/	2AA-\	4b-/]	4c\	.	4AA-/	vo-	.	1ryy	4c\	vo-	.	4c/	vo-	.	4b-/	vo-	.
.	.	.	.	.	.	4a-/	.	4f/	.	.	.	.	.	4a-/	4f\	.	4AA-/	-lun-	.	.	4c\	-lun-	.	4f/	-lun-	.	4a-/	-lun-	.
2BB-/	.	4.B-\	.	[>2B-/	.	4g/	.	4e-/	.	.	.	4.B-/	2BB-\	4g 4e-/	2ryy	.	2BB-/	-ta-	.	.	(>4.B-\	-ta-	.	(4e-/	-ta-	.	(4g/	-ta-	.
.	.	.	.	.	.	4f/	.	4d/	.	.	.	.	.	4f 4d/	.	.	.	.	.	.	.	.	.	4d/)	.	.	4f/)	.	.
.	.	8A-\	.	.	.	.	.	.	.	.	.	8A-/	.	.	.	.	.	.	.	.	8A-/)	.	.	.	.	.	.	.	.
*	*	*	*	*	*	*	*	*	*	*	*	*	*	*	*	*	*	*Xij	*	*	*	*Xij	*	*	*Xij	*	*	*	*
*	*	*	*	*	*	*	*	*	*	*	*	*	*	*v	*v	*	*	*	*	*	*	*	*	*	*	*	*	*	*
=22	=22	=22	=22	=22	=22	=22	=22	=22	=22	=22	=22	=22	=22	=22	=22	=22	=22	=22	=22	=22	=22	=22	=22	=22	=22	=22	=22	=22
4E-\	.	4G\	.	4B-/]	.	8e-/L)	.	8e-/L)	.	1ryy	1ryy	4G/	4EE-\	[1g [>1e-	.	4E-\	-tis.	.	1ryy	4G/	-tis.	.	4e-/	-tis.	.	4e-/	-tis	.
.	.	.	.	.	.	8e- 8G'/	.	8g 8G'/	.	.	.	.	.	.	.	.	.	.	.	.	.	.	.	.	.	.	.	.
4r	.	4r	.	4r	.	8e- 8G'/	.	8g 8G'/	.	.	.	4r	4rEEyy	.	.	4r	.	.	.	4r	.	.	4r	.	.	4r	.	.
.	.	.	.	.	.	8e-J 8G'/	.	8gJ 8G'/	.	.	.	.	.	.	.	.	.	.	.	.	.	.	.	.	.	.	.	.
*	*	*	*	*	*	*tremolo	*	*tremolo	*	*	*	*	*	*	*	*	*	*	*	*	*	*	*	*	*	*	*	*
8ryy	.	8r	.	8r	.	8e-L 8G/	.	8gL 8G/	.	.	.	8r	8rEEyy	.	.	8r	.	.	.	2r	.	.	2r	.	.	2r	.	.
!LO:TX:b:i:t=Col Vceli	!	!	!	!	!	!	!	!	!	!	!	!	!	!	!	!	!	!LO:DY:a:rj	!	!	!	!	!	!	!	!	!	!
8BB-'/Lyy	.	8BB-'/L	.	8B-|/L	.	8e- 8G/	.	8g 8G/	.	.	.	8BB-|/L	8BB-\L	.	.	8BB-'/	In	p	.	.	.	.	.	.	.	.	.	.
8C'/yy	.	8C'/	.	8C|/	.	8e- 8G/	.	8g 8G/	.	.	.	8C|/	8C\	.	.	8C'/	ter-	.	.	.	.	.	.	.	.	.	.	.
8D'/Jyy	.	8D'/J	.	8D|/J	.	8e-J 8G/	.	8gJ 8G/	.	.	.	8D|/J	8D\J	.	.	8D'/	-ra	.	.	.	.	.	.	.	.	.	.	.
*	*	*	*	*	*	*	*	*	*	*	*	*	*	*	*	*	*	*	*v	*v	*	*	*	*	*	*	*	*
!!LO:PB:g=original
=23	=23	=23	=23	=23	=23	=23	=23	=23	=23	=23	=23	=23	=23	=23	=23	=23	=23	=23	=23	=23	=23	=23	=23	=23	=23	=23	=23
!	!	!	!	!	!	!	!	!	!	!	!	!	!	!LO:TX:a:t=P:problem:brak zakończenia ligatury	!	!	!	!	!	!	!	!	!	!	!	!	!
2E-^\	.	4..E-^\	.	4..E-^/	.	8e-L 8G/	.	8gL 8G/	.	1ryy	1ryy	[2E-/	[>2E-\	4..g] 4..e-/]	.	[2E-\	pax	.	1r	.	.	1r	.	.	1r	.	.
.	.	.	.	.	.	8e- 8G/	.	8g 8G/	.	.	.	.	.	.	.	.	.	.	.	.	.	.	.	.	.	.	.
.	.	.	.	.	.	8e- 8G/	.	8g 8G/	.	.	.	.	.	.	.	.	.	.	.	.	.	.	.	.	.	.	.
.	.	.	.	.	.	8e- 8G/	.	8g 8G/	.	.	.	.	.	.	.	.	.	.	.	.	.	.	.	.	.	.	.
.	.	16E-\	.	16E-/	.	.	.	.	.	.	.	.	.	16ee- 16g/	.	.	.	.	.	.	.	.	.	.	.	.	.
8r	.	8E-\	.	8E-/	.	8e- 8G/	.	8g 8G/	.	.	.	8E-/L]	8E-\L]	8ee-L 8g/	.	8E-,\]	.	.	.	.	.	.	.	.	.	.	.
8BB-|\L	.	8BB-|\L	.	8B-|/L	.	8e- 8G/	.	8g 8G/	.	.	.	(8BB-/	8BB-\	8g 8e-|/	.	8BB-/	in	.	.	.	.	.	.	.	.	.	.
8E-|\	.	8E-|\	.	8E-'/	.	8e- 8G/	.	8g 8G/	.	.	.	8E-/)	8E-\	8g 8e-|/	.	8E-\	ter-	.	.	.	.	.	.	.	.	.	.
8G|\J	.	8G|\J	.	8G|/J	.	8e-J 8G/	.	8gJ 8G/	.	.	.	8G/J	8G\J	8gJ 8e-|/	.	8G\	-ra	.	.	.	.	.	.	.	.	.	.
=24	=24	=24	=24	=24	=24	=24	=24	=24	=24	=24	=24	=24	=24	=24	=24	=24	=24	=24	=24	=24	=24	=24	=24	=24	=24	=24	=24
*	*	*	*	*	*	*rep	*	*rep	*	*	*	*	*	*	*	*	*	*	*	*	*	*	*	*	*	*	*
2B-^\	.	4..B-^\	.	4..B-/	.	8e-L 8G/	.	8gL 8G/	.	1ryy	1ryy	[2B-/	[>2B-\	4..g 4..e-/	.	[2B-\	pax	.	1r	.	.	1r	.	.	1r	.	.
.	.	.	.	.	.	8e- 8G/	.	8g 8G/	.	.	.	.	.	.	.	.	.	.	.	.	.	.	.	.	.	.	.
.	.	.	.	.	.	8e- 8G/	.	8g 8G/	.	.	.	.	.	.	.	.	.	.	.	.	.	.	.	.	.	.	.
.	.	.	.	.	.	8e- 8G/	.	8g 8G/	.	.	.	.	.	.	.	.	.	.	.	.	.	.	.	.	.	.	.
.	.	16B-\	.	16B-/	.	.	.	.	.	.	.	.	.	16ee- 16g/	.	.	.	.	.	.	.	.	.	.	.	.	.
8r	.	8B-|\	.	8B-|/L	.	8e- 8G/	.	8g 8G/	.	.	.	8B-/]	8B-\]	8ee- 8g/	.	8B-\]	.	.	.	.	.	.	.	.	.	.	.
(8c\L	.	(8c\L	.	(8c/	.	8e- 8G/	.	8g 8G/	.	.	.	(8c/L	8c\L	4g 4e-/	.	8c\	ho-	.	.	.	.	.	.	.	.	.	.
8B-\)	.	8B-\)	.	8B-/)	.	8e- 8G/	.	8g 8G/	.	.	.	8B-/)	8B-\	.	.	8.B-\	-mi-	.	.	.	.	.	.	.	.	.	.
8G\J	.	8G\J	.	8G/J	.	8e-J 8G/	.	8gJ 8G/	.	.	.	8G/J	8G\J	8g 8e-/	.	.	.	.	.	.	.	.	.	.	.	.	.
.	.	.	.	.	.	.	.	.	.	.	.	.	.	.	.	16G\	-ni-	.	.	.	.	.	.	.	.	.	.
*	*	*	*	*	*	*Xrep	*	*Xrep	*	*	*	*	*	*	*	*	*	*	*	*	*	*	*	*	*	*	*
=25	=25	=25	=25	=25	=25	=25	=25	=25	=25	=25	=25	=25	=25	=25	=25	=25	=25	=25	=25	=25	=25	=25	=25	=25	=25	=25	=25
*	*	*	*	*	*	*	*	*	*	*	*	*	*	*^	*	*	*	*	*	*	*	*	*	*	*	*	*
4E-\	.	4E-\	.	4E-/	.	8e-L 8G/	.	8gL 8G/	.	1ryy	1ryy	4E-/	4E-\	2g/	2e-\	.	8E-\	-bus	.	1r	.	.	1r	.	.	1r	.	.
.	.	.	.	.	.	8e- 8G/	.	8g 8G/	.	.	.	.	.	.	.	.	8r	.	.	.	.	.	.	.	.	.	.	.
8.D/L	.	8.D\L	.	8.D/L	.	8e- 8G/	.	8g 8G/	.	.	.	8.D/L	8.D\L	.	.	.	8.D/	bo-	.	.	.	.	.	.	.	.	.	.
.	.	.	.	.	.	8e-J 8G/	.	8gJ 8G/	.	.	.	.	.	.	.	.	.	.	.	.	.	.	.	.	.	.	.	.
*	*	*	*	*	*	*Xtremolo	*	*Xtremolo	*	*	*	*	*	*	*	*	*	*	*	*	*	*	*	*	*	*	*	*
16C/Jk	.	16C\Jk	.	16C/Jk	.	.	.	.	.	.	.	16C/Jk	16C\Jk	.	.	.	16C/	-nae	.	.	.	.	.	.	.	.	.	.
4BB-/	.	4BB-/	.	4E-/	.	8e- 8G/	.	8g 8G/	.	.	.	4BB-/	4BB-\	4e- 4G/	2ryy	.	4BB-/	vo-	.	.	.	.	.	.	.	.	.	.
.	.	.	.	.	.	(8g/L	.	(8b-/L	.	.	.	.	.	.	.	.	.	.	.	.	.	.	.	.	.	.	.	.
4BB-/	.	4BB-/	.	4B-/	.	8f/)	.	8a-/)	.	.	.	4BB-/	4BB-\	4f 4d 4B-/	.	.	4BB-/	-lun-	.	.	.	.	.	.	.	.	.	.
.	.	.	.	.	.	8d/J	.	8f/J	.	.	.	.	.	.	.	.	.	.	.	.	.	.	.	.	.	.	.	.
*	*	*	*	*	*	*	*	*	*	*	*	*	*	*v	*v	*	*	*	*	*	*	*	*	*	*	*	*	*
=26	=26	=26	=26	=26	=26	=26	=26	=26	=26	=26	=26	=26	=26	=26	=26	=26	=26	=26	=26	=26	=26	=26	=26	=26	=26	=26	=26
2E-\	.	2BB-/	.	8G/	.	8e-/	.	8g/	.	1ryy	1ryy	2BB-/	2EE-\	2g 2e- 2B-/	.	2BB-/	-ta-	.	2r	.	.	2r	.	.	2r	.	.
!	!	!	!	!	!	!	!	!	!LO:HP:b	!	!	!	!	!	!	!	!	!	!	!	!	!	!	!	!	!	!
.	.	.	.	8e-L 8G'/	<	8ee-L 8g/	<	8ggL 8b-|\	<	.	.	.	.	.	.	.	.	.	.	.	.	.	.	.	.	.	.
.	.	.	.	8e- 8G'/	.	8ee- 8g/	.	8gg 8b-|\	.	.	.	.	.	.	.	.	.	.	.	.	.	.	.	.	.	.	.
.	.	.	.	8e-J 8G'/	[	8ee-J 8g/	[	8ggJ 8b-|\	.	.	.	.	.	.	.	.	.	.	.	.	.	.	.	.	.	.	.
8r	.	8r	.	8e- 8G'/	.	8ee- 8g/	.	8gg 8b-|\	[	.	.	8r	8ryy	8r	.	16E-\	-tis.	.	8r	.	ff	8r	.	.	8r	.	ff
.	.	.	.	.	.	.	.	.	.	.	.	.	.	.	.	16r	.	.	.	.	.	.	.	.	.	.	.
!	!LO:DY:rj	!	!LO:DY:rj	!	!LO:DY:rj	!	!LO:DY:rj	!	!	!	!	!	!	!	!LO:DY:rj	!	!	!LO:DY:a:rj	!	!	!	!	!	!LO:DY:a:rj	!	!	!
8BB-^^/L	ff	8BB-^^\L	ff	8B-^^\L	ff	8b-^^\L	ff	8b-^^\L	ff	.	.	8BB-^^/L	8BB-\L	8b-L 8B-^^/	ff	8B-\	Glo-	ff	8B-\	Glo-	.	8b-/	Glo-	ff	8b-\	Glo-	.
*	*	*	*	*	*	*	*	*	*	*	*	*	*	*	*	*	*ij	*	*	*ij	*	*	*ij	*	*	*	*
8E-^^/	.	8E-^^\	.	8e-^^\	.	8ee-^^\	.	8ee-^^\	.	.	.	8E-^^/	8E-\	8ee- 8e-^^/	.	8E-\	-ri-	.	8e-\	-ri-	.	8e-/	-ri-	.	8ee-\	-ri-	.
8F^^/J	.	8F^^\J	.	8f^^\J	.	8ff^^\J	.	8ff^^\J	.	.	.	8F^^/J	8F\J	8ffJ 8f^^/	.	8F\	-a,	.	8f\	-a,	.	8f/	-a,	.	8ff\	-a,	.
=27	=27	=27	=27	=27	=27	=27	=27	=27	=27	=27	=27	=27	=27	=27	=27	=27	=27	=27	=27	=27	=27	=27	=27	=27	=27	=27	=27
2G\	.	4..G\	.	8g^^\	.	8ee-^^\	.	8gg^^\	.	1ryy	1ryy	8G/	2G\	4..gg 4..ee- 4..b- 4..g\	.	4..G\	glo-	.	4..g\	glo-	.	4..g/	glo-	.	4..gg\	glo-	.
*	*	*	*	*tremolo	*	*tremolo	*	*tremolo	*	*	*	*	*	*	*	*	*	*	*	*	*	*	*	*	*	*	*
!	!	!	!	!LO:TX:a:t='''	!	!LO:TX:a:t='''	!	!LO:TX:a:t='''	!	!	!	!	!	!	!	!	!	!	!	!	!	!	!	!	!	!	!
.	.	.	.	8gL 8B-|\	.	8ee-L 8g|\	.	8ggL 8b-|\	.	.	.	8e-L 8B- 8G\	.	.	.	.	.	.	.	.	.	.	.	.	.	.	.
.	.	.	.	8g 8B-|\	.	8ee- 8g|\	.	8gg 8b-|\	.	.	.	8e- 8B- 8G\	.	.	.	.	.	.	.	.	.	.	.	.	.	.	.
.	.	.	.	8gJ 8B-|\	.	8ee-J 8g|\	.	8ggJ 8b-|\	.	.	.	8e-J 8B- 8G\	.	.	.	.	.	.	.	.	.	.	.	.	.	.	.
*	*	*	*	*Xtremolo	*	*Xtremolo	*	*Xtremolo	*	*	*	*	*	*	*	*	*	*	*	*	*	*	*	*	*	*	*
.	.	16G\	.	.	.	.	.	.	.	.	.	.	.	16gg 16ee- 16b- 16g\	.	16E-\	-ri-	.	16B-\	-ri-	.	16g/	-ri-	.	16ee-\	-ri-	.
8r	.	8G\L	.	8gL 8B-|\	.	8ee- 8g|\	.	8gg 8b-|\	.	.	.	8e- 8B- 8G\	8rEE	8gg 8ee- 8b- 8g\	.	16E-\	-a,	.	16B-\	-a,	.	16g/	-a,	.	16ee-\	-a,	.
.	.	.	.	.	.	.	.	.	.	.	.	.	.	.	.	16r	.	.	16r	.	.	16r	.	.	16r	.	.
8E-\L	.	8E-^^\	.	8e-^^\	.	8ee-^^\L	.	8ee-^^\L	.	.	.	8E-^^/L	8E-\L	8ee-L 8e-^^\	.	8E-\	glo-	.	8e-\	glo-	.	8e-/	glo-	.	8ee-\	glo-	.
8G\	.	8G^^\	.	8g^^\	.	8g^^\	.	8gg^^\	.	.	.	8G^^/	8G\	8gg 8g^^\	.	8G\	-ri-	.	8G/	-ri-	.	8g/	-ri-	.	8g/	-ri-	.
8A-\J	.	8A-^^\J	.	8a-^^\J	.	8a-^^\J	.	8aa-^^\J	.	.	.	8A-^^/J	8A-\J	8aa-J 8a-^^\	.	8A-\	-a,	.	8A-/	-a,	.	8a-/	-a,	.	8a-/	-a,	.
=28	=28	=28	=28	=28	=28	=28	=28	=28	=28	=28	=28	=28	=28	=28	=28	=28	=28	=28	=28	=28	=28	=28	=28	=28	=28	=28	=28
*	*	*	*	*	*	*	*	*	*	*	*	*	*2\left	*	*	*	*	*	*	*	*	*	*	*	*	*	*
[4B-\	.	4.B-^^\	.	8b-^^\L	.	8b-^^\	.	8bb-^^\L	.	1ryy	1ryy	8B-/	2B-\	4..bb- 4..gg 4..ee- 4..b-\	.	8.B-\	glo-	.	8.B-/	glo-	.	8.b-/	glo-	.	8.b-\	glo-	.
*	*	*	*	*	*	*	*	*	*	*	*	*tremolo	*	*	*	*	*	*	*	*	*	*	*	*	*	*	*
.	.	.	.	8b- 8g|\	.	8ggL 8ee-|\	.	8bb- 8b-|\	.	.	.	8gL 8e- 8B- 8G\	.	.	.	.	.	.	.	.	.	.	.	.	.	.	.
.	.	.	.	.	.	.	.	.	.	.	.	.	.	.	.	16B-\	-ri-	.	16B-/	-ri-	.	16b-/	-ri-	.	16b-\	-ri-	.
8B-\]	.	.	.	8b-J 8g|\	.	8ggJ 8ee-|\	.	8bb-J 8b-|\	.	.	.	8g 8e- 8B- 8G\	.	.	.	8B-\	-a	.	8B-/	-a	.	8b-/	-a	.	8b-\	-a	.
8r	.	8g^^\	.	8g^^\	.	8e-^^/	.	8e-^^/	.	.	.	8gJ 8e- 8B- 8G\	.	.	.	8r	.	.	8r	.	.	8r	.	.	8r	.	.
*	*	*	*	*	*	*	*	*	*	*	*	*Xtremolo	*	*	*	*	*	*	*	*	*	*	*	*	*	*	*
.	.	.	.	.	.	.	.	.	.	.	.	.	.	16bb- 16gg 16ee- 16b-\	.	.	.	.	.	.	.	.	.	.	.	.	.
8r	.	8e-^^\L	.	8e-^^/L	.	8g^^/L	.	8g^^/L	.	.	.	8g 8e- 8B- 8G\	8rEE	8bb- 8gg 8ee- 8b-\	.	8e-\	in	.	8B-/	in	.	8e-/	in	.	8g/	in	.
8B-\L	.	8B-^^\	.	8B-^^/	.	8b-^^/	.	8b-^^/	.	.	.	8B-^^/L	8BB-\L	8b-^^/L	.	8B-\	ex-	.	8e-\	ex-	.	8g/	ex-	.	8b-\	ex-	.
8G\	.	8G^^\	.	8G^^/	.	8ee-^^/	.	8ee-^^/	.	.	.	8G^^/	8GG\	8ee- 8e-^^/	.	8G\	-cel-	.	8e-\	-cel-	.	8b-\	-cel-	.	8ee-\	-cel-	.
8E-\J	.	8E-^^\J	.	8E-^^/J	.	8gg^^/J	.	8gg^^/J	.	.	.	8E-^^/J	8EE-\J	8ggJ 8g^^/	.	8E-\	-sis	.	8e-\	-sis	.	8ee-\	-sis	.	8gg\	-sis	.
*	*	*	*	*	*	*	*	*	*	*	*	*	*	*	*	*	*Xij	*	*	*Xij	*	*	*Xij	*	*	*	*
!!LO:PB:g=original
=29	=29	=29	=29	=29	=29	=29	=29	=29	=29	=29	=29	=29	=29	=29	=29	=29	=29	=29	=29	=29	=29	=29	=29	=29	=29	=29	=29
*	*	*	*	*	*	*	*	*	*	*	*	*	*	*^	*	*	*	*	*	*	*	*	*	*	*^	*	*
!	!	!	!	!	!	!	!	!	!	!	!	!	!	!	!	!	!	!	!	!	!	!	!	!	!	!LO:TX:a:i:t=Solo.:note=podkreślone na czerwono	!	!	!
4BB-^^/	.	4BB-^^/	.	4e-\	.	4gg\	.	4bb- 4b-\	.	1ryy	1ryy	4BB-/	4BB-\	2bb- 2ee- 2b-/	4g 4e- 4B-\	.	1B-	De-	.	(2.e-\	De-	.	(2b-/	De-	.	1bb-	(4gg\	De-	.
4BB-^^/	.	4BB-^^/	.	4ee-^^\	.	4gg-X 4b-^^\	.	8.bb-L 8.b-\	.	.	.	4BB-^^\	4ryy	.	4g-X 4e- 4B-^^\	.	.	.	.	.	.	.	.	.	.	.	4gg-X\	.	.
.	.	.	.	.	.	.	.	16bb-Jk 16b-\	.	.	.	.	.	.	.	.	.	.	.	.	.	.	.	.	.	.	.	.	.
4BB-^^/	.	4BB-^^/	.	4ee-^^\	.	4ff 4cc^^\	.	4bb- 4b-\	.	.	.	4BB-^^\	2ryy	4bb- 4ff 4ee- 4cc 4b-^^/	4f 4e- 4c 4B-\	.	.	.	.	.	.	.	2a-/)	.	.	.	2ff\)	.	.
4B-^^\	.	4B-^^\	.	4dd\	.	4aa- 4b-\	.	4bb- 4b-\	.	.	.	4BB-^^\	.	4bb- 4ff 4dd 4b-\	4f 4d 4B-\	.	.	.	.	4d\)	.	.	.	.	.	.	.	.	.
=30	=30	=30	=30	=30	=30	=30	=30	=30	=30	=30	=30	=30	=30	=30	=30	=30	=30	=30	=30	=30	=30	=30	=30	=30	=30	=30	=30	=30	=30
*tremolo	*	*tremolo	*	*tremolo	*	*tremolo	*	*tremolo	*	*	*	*	*	*	*	*	*	*	*	*	*	*	*	*	*	*	*	*	*
!	!LO:DY:rj	!	!LO:DY:rj	!	!LO:DY:rj	!	!LO:DY:rj	!	!LO:DY:b:rj	!	!	!	!	!	!	!	!	!	!	!	!	!	!	!	!	!	!	!	!
8E-\L	fff	8E-\L	fff	32ee-LLL 32g\	fff	32ggLLL 32b-\	fff	32eee-LLL 32ee-\	fff	1ryy	1ryy	[1B- [1G	[1E- [1EE-	(1eee- (1bb- (<1gg [<1ee-	[>1g [>1e-	.	4E-\	-o!	.	4e-\	-o!	.	4g/	-o!	.	4ee-/	4ee-\	-o!	.
.	.	.	.	32ee- 32g\	.	32gg 32b-\	.	32eee- 32ee-\	.	.	.	.	.	.	.	.	.	.	.	.	.	.	.	.	.	.	.	.	.
.	.	.	.	32ee- 32g\	.	32gg 32b-\	.	32eee- 32ee-\	.	.	.	.	.	.	.	.	.	.	.	.	.	.	.	.	.	.	.	.	.
.	.	.	.	32ee- 32g\	.	32gg 32b-\	.	32eee- 32ee-\	.	.	.	.	.	.	.	.	.	.	.	.	.	.	.	.	.	.	.	.	.
8E-\	.	8E-\	.	32ee- 32g\	.	32gg 32b-\	.	32eee- 32ee-\	.	.	.	.	.	.	.	.	.	.	.	.	.	.	.	.	.	.	.	.	.
.	.	.	.	32ee- 32g\	.	32gg 32b-\	.	32eee- 32ee-\	.	.	.	.	.	.	.	.	.	.	.	.	.	.	.	.	.	.	.	.	.
.	.	.	.	32ee- 32g\	.	32gg 32b-\	.	32eee- 32ee-\	.	.	.	.	.	.	.	.	.	.	.	.	.	.	.	.	.	.	.	.	.
.	.	.	.	32ee-JJJ 32g\	.	32gg 32b-\	.	32eee- 32ee-\	.	.	.	.	.	.	.	.	.	.	.	.	.	.	.	.	.	.	.	.	.
8E-\	.	8E-\	.	32ee-LLL 32g\	.	32gg 32b-\	.	32eee- 32ee-\	.	.	.	.	.	.	.	.	4r	.	.	4r	.	.	4r	.	.	4r	4ryy	.	.
.	.	.	.	32ee- 32g\	.	32gg 32b-\	.	32eee- 32ee-\	.	.	.	.	.	.	.	.	.	.	.	.	.	.	.	.	.	.	.	.	.
.	.	.	.	32ee- 32g\	.	32gg 32b-\	.	32eee- 32ee-\	.	.	.	.	.	.	.	.	.	.	.	.	.	.	.	.	.	.	.	.	.
.	.	.	.	32ee- 32g\	.	32gg 32b-\	.	32eee- 32ee-\	.	.	.	.	.	.	.	.	.	.	.	.	.	.	.	.	.	.	.	.	.
8E-\J	.	8E-\J	.	32ee- 32g\	.	32gg 32b-\	.	32eee- 32ee-\	.	.	.	.	.	.	.	.	.	.	.	.	.	.	.	.	.	.	.	.	.
.	.	.	.	32ee- 32g\	.	32gg 32b-\	.	32eee- 32ee-\	.	.	.	.	.	.	.	.	.	.	.	.	.	.	.	.	.	.	.	.	.
.	.	.	.	32ee- 32g\	.	32gg 32b-\	.	32eee- 32ee-\	.	.	.	.	.	.	.	.	.	.	.	.	.	.	.	.	.	.	.	.	.
.	.	.	.	32ee-JJJ 32g\	.	32ggJJJ 32b-\	.	32eee-JJJ 32ee-\	.	.	.	.	.	.	.	.	.	.	.	.	.	.	.	.	.	.	.	.	.
*	*	*	*	*Xtremolo	*	*	*	*	*	*	*	*	*	*	*	*	*	*	*	*	*	*	*	*	*	*	*	*	*
8E-\L	.	8E-\L	.	8ee- 8g\	.	32gg\LLL	.	32bb-\LLL	.	.	.	.	.	.	.	.	2r	.	.	2r	.	.	2r	.	.	2r	2ryy	.	.
.	.	.	.	.	.	32gg\	.	32bb-\	.	.	.	.	.	.	.	.	.	.	.	.	.	.	.	.	.	.	.	.	.
.	.	.	.	.	.	32gg\	.	32bb-\	.	.	.	.	.	.	.	.	.	.	.	.	.	.	.	.	.	.	.	.	.
.	.	.	.	.	.	32gg\	.	32bb-\	.	.	.	.	.	.	.	.	.	.	.	.	.	.	.	.	.	.	.	.	.
8E-\	.	8E-\	.	8b-L 8e- 8G\	.	32ee-\	.	32gg\	.	.	.	.	.	.	.	.	.	.	.	.	.	.	.	.	.	.	.	.	.
.	.	.	.	.	.	32ee-\	.	32gg\	.	.	.	.	.	.	.	.	.	.	.	.	.	.	.	.	.	.	.	.	.
.	.	.	.	.	.	32ee-\	.	32gg\	.	.	.	.	.	.	.	.	.	.	.	.	.	.	.	.	.	.	.	.	.
.	.	.	.	.	.	32ee-\	.	32gg\	.	.	.	.	.	.	.	.	.	.	.	.	.	.	.	.	.	.	.	.	.
8E-\	.	8E-\	.	8b- 8e- 8G\	.	32b-\	.	32ee-\	.	.	.	.	.	.	.	.	.	.	.	.	.	.	.	.	.	.	.	.	.
.	.	.	.	.	.	32b-\	.	32ee-\	.	.	.	.	.	.	.	.	.	.	.	.	.	.	.	.	.	.	.	.	.
.	.	.	.	.	.	32b-\	.	32ee-\	.	.	.	.	.	.	.	.	.	.	.	.	.	.	.	.	.	.	.	.	.
.	.	.	.	.	.	32b-\	.	32ee-\	.	.	.	.	.	.	.	.	.	.	.	.	.	.	.	.	.	.	.	.	.
8E-\J	.	8E-\J	.	8b-J 8e- 8G\	.	32g\	.	32b-\	.	.	.	.	.	.	.	.	.	.	.	.	.	.	.	.	.	.	.	.	.
.	.	.	.	.	.	32g\	.	32b-\	.	.	.	.	.	.	.	.	.	.	.	.	.	.	.	.	.	.	.	.	.
.	.	.	.	.	.	32g\	.	32b-\	.	.	.	.	.	.	.	.	.	.	.	.	.	.	.	.	.	.	.	.	.
.	.	.	.	.	.	32g\JJJ	.	32b-\JJJ	.	.	.	.	.	.	.	.	.	.	.	.	.	.	.	.	.	.	.	.	.
*Xtremolo	*	*Xtremolo	*	*	*	*	*	*	*	*	*	*	*	*	*	*	*	*	*	*	*	*	*	*	*	*	*	*	*
*	*	*	*	*	*	*	*	*	*	*	*	*	*	*	*	*	*	*	*	*	*	*	*	*	*	*v	*v	*	*
=31	=31	=31	=31	=31	=31	=31	=31	=31	=31	=31	=31	=31	=31	=31	=31	=31	=31	=31	=31	=31	=31	=31	=31	=31	=31	=31	=31	=31
*	*	*	*	*	*	*	*	*	*	*	*	*	*	*	*	*	*	*	*	*	*	*	*^	*	*	*	*	*
*	*	*	*	*tremolo	*	*	*	*	*	*	*	*	*	*	*	*	*	*	*	*	*	*	*	*	*	*	*	*	*
8E-\L	.	8E-\L	.	32b-\LLL	.	32e-/LLL	.	32g/LLL	.	1ryy	1ryy	8B-] 8G/]	8E-]L 8EE-\]	4ee-/]	4ee-) 4g]) 4e-\])	.	1r	.	.	1r	.	.	2r	1rc	.	.	1r	.	.
.	.	.	.	32b-\	.	32e-/	.	32g/	.	.	.	.	.	.	.	.	.	.	.	.	.	.	.	.	.	.	.	.	.
.	.	.	.	32b-\	.	32e-/	.	32g/	.	.	.	.	.	.	.	.	.	.	.	.	.	.	.	.	.	.	.	.	.
.	.	.	.	32b-\	.	32e-/	.	32g/	.	.	.	.	.	.	.	.	.	.	.	.	.	.	.	.	.	.	.	.	.
8B-\	.	8B-\	.	32g\	.	32e-/	.	32g/	.	.	.	8B-/L	8BB-\	.	.	.	.	.	.	.	.	.	.	.	.	.	.	.	.
.	.	.	.	32g\	.	32e-/	.	32g/	.	.	.	.	.	.	.	.	.	.	.	.	.	.	.	.	.	.	.	.	.
.	.	.	.	32g\	.	32e-/	.	32g/	.	.	.	.	.	.	.	.	.	.	.	.	.	.	.	.	.	.	.	.	.
.	.	.	.	32g\JJJ	.	32e-/JJJ	.	32g/JJJ	.	.	.	.	.	.	.	.	.	.	.	.	.	.	.	.	.	.	.	.	.
*	*	*	*	*	*	*Xtremolo	*	*	*	*	*	*	*	*	*	*	*	*	*	*	*	*	*	*	*	*	*	*	*
8e-\	.	8e-\	.	32e-\LLL	.	8e-/	.	32e-/LLL	.	.	.	8e-/	8E-\	4ryy	4rdd	.	.	.	.	.	.	.	.	.	.	.	.	.	.
.	.	.	.	32e-\	.	.	.	32e-/	.	.	.	.	.	.	.	.	.	.	.	.	.	.	.	.	.	.	.	.	.
.	.	.	.	32e-\	.	.	.	32e-/	.	.	.	.	.	.	.	.	.	.	.	.	.	.	.	.	.	.	.	.	.
.	.	.	.	32e-\	.	.	.	32e-/	.	.	.	.	.	.	.	.	.	.	.	.	.	.	.	.	.	.	.	.	.
8B-\J	.	8B-\J	.	32B-\	.	8r	.	32B-/	.	.	.	8B-/J	8BB-\J	.	.	p	.	.	.	.	.	.	.	.	.	.	.	.	.
.	.	.	.	32B-\	.	.	.	32B-/	.	.	.	.	.	.	.	.	.	.	.	.	.	.	.	.	.	.	.	.	.
.	.	.	.	32B-\	.	.	.	32B-/	.	.	.	.	.	.	.	.	.	.	.	.	.	.	.	.	.	.	.	.	.
.	.	.	.	32B-\JJJ	.	.	.	32B-/JJJ	.	.	.	.	.	.	.	.	.	.	.	.	.	.	.	.	.	.	.	.	.
*	*	*tremolo	*	*	*	*	*	*Xtremolo	*	*	*	*	*	*	*	*	*	*	*	*	*	*	*	*	*	*	*	*	*
!	!	!	!	!	!	!	!	!	!	!	!	!	!	!	!	!	!	!	!	!	!	!	!LO:TX:a:i:t=Solo	!	!	!	!	!	!
8G/L	.	32G\LLL	.	32G/LLL	.	2r	.	8G/	.	.	.	8G|/L	8G\L	2ryy	4rdd	.	.	.	.	.	.	.	4r	.	.	.	.	.	.
.	.	32G\	.	32G/	.	.	.	.	.	.	.	.	.	.	.	.	.	.	.	.	.	.	.	.	.	.	.	.	.
.	.	32G\	.	32G/	.	.	.	.	.	.	.	.	.	.	.	.	.	.	.	.	.	.	.	.	.	.	.	.	.
.	.	32G\	.	32G/JJ	.	.	.	.	.	.	.	.	.	.	.	.	.	.	.	.	.	.	.	.	.	.	.	.	.
*	*	*	*	*Xtremolo	*	*	*	*	*	*	*	*	*	*	*	*	*	*	*	*	*	*	*	*	*	*	*	*	*
8E-/	.	32E-\	.	8E-'/J	.	.	.	8r	.	.	.	8E-|/	8E-\	.	.	.	.	.	.	.	.	.	.	.	.	.	.	.	.
.	.	32E-\	.	.	.	.	.	.	.	.	.	.	.	.	.	.	.	.	.	.	.	.	.	.	.	.	.	.	.
.	.	32E-\	.	.	.	.	.	.	.	.	.	.	.	.	.	.	.	.	.	.	.	.	.	.	.	.	.	.	.
.	.	32E-\JJJ	.	.	.	.	.	.	.	.	.	.	.	.	.	.	.	.	.	.	.	.	.	.	.	.	.	.	.
!	!	!	!	!	!	!	!	!	!	!	!	!	!	!	!	!LO:DY:a	!	!	!	!	!	!	!	!	!	!	!	!	!
8BB-/	.	32BB-/LLL	.	4r	.	.	.	4r	.	.	.	8BB-|/	8BB-\	.	[4e-/	p	.	.	.	.	.	.	8e-/	.	.	.	.	.	.
.	.	32BB-/	.	.	.	.	.	.	.	.	.	.	.	.	.	.	.	.	.	.	.	.	.	.	.	.	.	.	.
.	.	32BB-/	.	.	.	.	.	.	.	.	.	.	.	.	.	.	.	.	.	.	.	.	.	.	.	.	.	.	.
.	.	32BB-/	.	.	.	.	.	.	.	.	.	.	.	.	.	.	.	.	.	.	.	.	.	.	.	.	.	.	.
8GG/J	.	32GG/	.	.	.	.	.	.	.	.	.	8GG|/J	8GG\J	.	.	.	.	.	.	.	.	.	8e-/	.	.	.	.	.	.
.	.	32GG/	.	.	.	.	.	.	.	.	.	.	.	.	.	.	.	.	.	.	.	.	.	.	.	.	.	.	.
.	.	32GG/	.	.	.	.	.	.	.	.	.	.	.	.	.	.	.	.	.	.	.	.	.	.	.	.	.	.	.
.	.	32GG/JJJ	.	.	.	.	.	.	.	.	.	.	.	.	.	.	.	.	.	.	.	.	.	.	.	.	.	.	.
*	*	*Xtremolo	*	*	*	*	*	*	*	*	*	*	*	*	*	*	*	*	*	*	*	*	*	*	*	*	*	*	*
=32	=32	=32	=32	=32	=32	=32	=32	=32	=32	=32	=32	=32	=32	=32	=32	=32	=32	=32	=32	=32	=32	=32	=32	=32	=32	=32	=32	=32	=32
4EE-/	.	4EE-/	.	1r	.	1r	.	1r	.	1ryy	1ryy	4EE-/	4EE-\	1ryy	4e-/]	.	1r	.	.	1r	.	.	4e-/	1r	.	.	1r	.	.
4r	.	4r	.	.	.	.	.	.	.	.	.	4r	4rEEyy	.	4f/	.	.	.	.	.	.	.	4f/	.	.	.	.	.	.
2r	.	2r	.	.	.	.	.	.	.	.	.	2r	2rEEyy	.	4e-/	.	.	.	.	.	.	.	4e-/	.	.	.	.	.	.
!	!	!	!	!	!	!	!	!	!	!	!	!	!	!	!	!	!	!	!	!	!	!	!LO:TX:b:i:t=tutti:note=podkreślone na czerwono	!	!	!	!	!	!
.	.	.	.	.	.	.	.	.	.	.	.	.	.	.	4f/	.	.	.	.	.	.	.	4f/	.	.	.	.	.	.
*	*	*	*	*	*	*	*	*	*	*	*	*v	*v	*	*	*	*	*	*	*	*	*	*	*	*	*	*	*	*
=33	=33	=33	=33	=33	=33	=33	=33	=33	=33	=33	=33	=33	=33	=33	=33	=33	=33	=33	=33	=33	=33	=33	=33	=33	=33	=33	=33	=33
!	!	!	!	!	!	!	!	!	!	!	!	!	!	!	!	!	!	!	!	!	!	!	!	!	!LO:DY:b:t=pp.	!	!	!
1r	.	1r	.	2r	.	2r	.	1r	.	1ryy	1ryy	1r	1ryy	[1e-	.	1r	.	.	1r	.	.	4.e-/	2r	.	pp	1r	.	.
.	.	.	.	.	.	.	.	.	.	.	.	.	.	.	.	.	.	.	.	.	.	8e-/	.	.	.	.	.	.
!	!	!	!	!	!LO:DY:rj	!	!LO:DY:rj	!	!	!	!	!	!	!	!	!	!	!	!	!	!	!	!	!	!	!	!	!
.	.	.	.	2e-^\	p	[2e-^/	p	.	.	.	.	.	.	.	.	.	.	.	.	.	.	[2e-/	2e-\	pax	.	.	.	.
=34	=34	=34	=34	=34	=34	=34	=34	=34	=34	=34	=34	=34	=34	=34	=34	=34	=34	=34	=34	=34	=34	=34	=34	=34	=34	=34	=34	=34
*	*	*	*	*	*	*	*	*	*	*	*	*	*	*	*	*	*	*	*^	*	*	*	*	*	*	*	*	*
!	!	!	!	!	!LO:DY:rj	!	!LO:DY:rj	!	!LO:DY:rj	!	!	!	!	!	!	!	!	!	!	!	!	!LO:DY:b:rj	!	!LO:N:vis=4.	!	!	!LO:TX:a:i:t=tutti:note=podkreślone na czerwono	!	!LO:DY:b:rj:t=pp.
2r	.	4.BB-/	p	4.B-/	p	4.e-/]	p	4.g/	p	1ryy	1ryy	1ryy	1ryy	4e-/]	.	4.G 4.BB-/	.	.	4.B-/	4.B-\	pax,	pp	4e-/]	4e-\	.	.	4.g/	pax,	pp
.	.	.	.	.	.	.	.	.	.	.	.	.	.	8d/L	.	.	.	.	.	.	.	.	8d/	4r	.	.	.	.	.
.	.	8r	.	8r	.	8r	.	8r	.	.	.	.	.	8c/J	.	8r	.	.	8r	8ryy	.	.	8c/	.	.	.	8r	.	.
!	!LO:DY:t=pp.	!	!LO:DY:t=pp.	!	!LO:DY:t=pp.	!	!LO:DY:rj	!	!LO:DY:rj:t=pp.	!	!	!	!	!	!	!	!	!	!	!	!	!	!	!	!	!	!	!	!
4.B-\	pp	4.A-\	pp	4.B- 4.F/	pp	4.f/	pp	4.b- 4.d/	pp	.	.	.	.	4B-/	.	4.F 4.BB-/	.	.	4.B-/	4.A-\	pax,	.	4B-/	4d\	.	.	4.b-\	pax	.
.	.	.	.	.	.	.	.	.	.	.	.	.	.	4B-/	.	.	.	.	.	.	.	.	4B-/	4r	.	.	.	.	.
8r	.	8r	.	8r	.	8r	.	8r	.	.	.	.	.	.	.	8r	.	.	8r	8ryy	.	.	.	.	.	.	8r	.	.
=35	=35	=35	=35	=35	=35	=35	=35	=35	=35	=35	=35	=35	=35	=35	=35	=35	=35	=35	=35	=35	=35	=35	=35	=35	=35	=35	=35	=35	=35
*	*	*	*	*	*	*	*	*	*	*	*	*^	*	*	*	*^	*	*	*	*	*	*	*	*	*	*	*^	*	*
*	*	*	*	*	*	*	*	*	*	*	*	*2\right	*	*	*	*	*	*	*	*	*	*	*	*	*	*	*	*	*	*	*	*
!	!	!	!	!	!	!	!	!	!	!	!	!	!	!	!	!	!	!	!	!	!	!	!	!	!	!	!	!	!LO:TX:b:i:t=tutti	!	!	!
!	!LO:DY:rj:t=ppp.	!	!LO:DY:rj	!	!LO:DY:rj	!	!LO:DY:t=ppp.	!	!LO:DY:t=ppp.	!	!	!	!	!	!	!	!	!	!	!	!	!	!	!	!	!	!	!	!LO:TX:a:i:t=Soli	!	!	!
[2E-\	ppp	[2G [2BB-\	ppp	[2e- [2E-/	ppp	[2ee- [2g\	ppp	[2gg [>2b-\	ppp	1ryy	1ryy	[2E-/	[>2EE-\	1ryy	[2g [2B-/	.	[2E-/	[>2E-\	.	.	[2B-/	[>2G\	pax	.	[2e-\	2B-/	.	.	[2gg [2ee-/	[>2b- [>2g\	pax	.
8E-\]	.	8G] 8BB-\]	.	8e-] 8E-/]	.	8ee-] 8g\]	.	8gg] 8b-\]	.	.	.	8E-/]	8EE-\]	.	8g] 8B-/]	.	8E-/]	8E-\]	.	.	8B-/]	8G\]	.	.	8e-/]	8e-\	.	.	8gg] 8ee-/]	8b-] 8g\]	.	.
8r	.	8r	.	8r	.	8r	.	8r	.	.	.	8rF	8rEE	.	8rff	.	8r	8rEEyy	.	.	8r	8ryy	.	.	8r	8ryy	.	.	8r	8ryy	.	.
!	!	!	!	!	!	!	!	!	!	!	!	!	!	!	!	!	!LO:TX:a:i:t=Solo	!	!	!	!	!	!	!	!	!	!	!	!	!	!	!
4r	.	8E-\L	p	4r	.	4r	.	8e-/L	p	.	.	8E-/L	4rEE	.	4rff	.	8E-/	4r	pax	.	4r	4ryy	.	.	4r	4ryy	.	.	4r	4ryy	.	.
.	.	8F\J	.	.	.	.	.	8f/J	.	.	.	8F/J	.	.	.	.	8F/	.	ho-	.	.	.	.	.	.	.	.	.	.	.	.	.
*	*	*	*	*	*	*	*	*	*	*	*	*	*	*	*	*	*	*	*	*	*v	*v	*	*	*	*	*	*	*v	*v	*	*
*	*	*	*	*	*	*	*	*	*	*	*	*	*	*v	*v	*	*	*	*	*	*	*	*	*v	*v	*	*	*	*	*
=36	=36	=36	=36	=36	=36	=36	=36	=36	=36	=36	=36	=36	=36	=36	=36	=36	=36	=36	=36	=36	=36	=36	=36	=36	=36	=36	=36	=36
1r	.	(4G\	.	1r	.	1r	.	(4g/	.	1ryy	1ryy	4G/	1r	1r	.	4G/	1r	-mi-	.	1r	.	.	1r	.	.	1r	.	.
!	!	!	!	!	!	!	!	!	!	!	!	!	!	!	!	!LO:TX:a:i:t=un poco riten&colon;	!	!	!	!	!	!	!	!	!	!	!	!
.	.	4A-\	.	.	.	.	.	4a-/	.	.	.	4A-/	.	.	.	4A-/	.	-ni-	.	.	.	.	.	.	.	.	.	.
.	.	4G\)	.	.	.	.	.	4g/)	.	.	.	4G/	.	.	.	4G/	.	-bus	.	.	.	.	.	.	.	.	.	.
.	.	8.B-\L	.	.	.	.	.	8.b-/L	.	.	.	8.B-/L	.	.	.	8B-/	.	bo-	.	.	.	.	.	.	.	.	.	.
.	.	.	.	.	.	.	.	.	.	.	.	.	.	.	.	8A-/	.	-nae	.	.	.	.	.	.	.	.	.	.
.	.	16A-\Jk	.	.	.	.	.	16a-/Jk	.	.	.	16A-/Jk	.	.	.	.	.	.	.	.	.	.	.	.	.	.	.	.
=37	=37	=37	=37	=37	=37	=37	=37	=37	=37	=37	=37	=37	=37	=37	=37	=37	=37	=37	=37	=37	=37	=37	=37	=37	=37	=37	=37	=37
1r	.	4.G^\	.	1r	.	1r	.	4.g^/	.	1ryy	1ryy	4.G/	1rFF	1r	.	4.G/	1r	vo-	.	1r	.	.	1r	.	.	1r	.	.
.	.	8F\	.	.	.	.	.	8f/	.	.	.	8F/	.	.	.	8F/	.	-lun-	.	.	.	.	.	.	.	.	.	.
!	!	!	!	!	!	!	!	!	!	!	!	!	!	!	!	!	!	!	!	!	!	!	!	!	!	!LO:TX:a:i:t=un poco ritenuto&colon;	!	!
.	.	4E-'\	.	.	.	.	.	4e-|/	.	.	.	4E-/	.	.	.	4E-/	.	-ta-	.	.	.	.	.	.	.	.	.	.
.	.	4GG/	.	.	.	.	.	4G/	.	.	.	4GG/	.	.	.	4GG/	.	-tis	.	.	.	.	.	.	.	.	.	.
*	*	*	*	*	*	*	*	*	*	*	*	*	*	*	*	*v	*v	*	*	*	*	*	*	*	*	*	*	*
=38	=38	=38	=38	=38	=38	=38	=38	=38	=38	=38	=38	=38	=38	=38	=38	=38	=38	=38	=38	=38	=38	=38	=38	=38	=38	=38	=38
*	*	*	*	*	*	*	*	*	*	*	*	*	*	*	*	*	*	*	*	*	*	*	*	*	*^	*	*
!	!	!	!LO:DY:rj:t=p.	!	!LO:DY:rj	!	!LO:DY:rj	!	!LO:DY:rj:t=p.	!	!	!	!	!	!	!	!	!LO:DY:a:rj:t=ppp.	!	!	!LO:DY:a:rj:t=ppp.	!	!	!LO:DY:a:rj:t=ppp.	!	!	!	!LO:DY:b:rj
2r	.	4.BB-/	p	4.G/	p	4.e-/	p	4.b-/	p	1ryy	1ryy	4BB-/	2r	1r	.	4.BB-\	pax,	ppp	4.G 4.E-/	.	ppp	4.B-/	.	ppp	4.b-/	4.b-\	.	ppp
.	.	.	.	.	.	.	.	.	.	.	.	4r	.	.	.	.	.	.	.	.	.	.	.	.	.	.	.	.
.	.	8r	.	8r	.	8r	.	8r	.	.	.	.	.	.	.	8r	.	.	8r	.	.	8r	.	.	8r	8ryy	.	.
!	!LO:DY:rj:t=pp.	!	!LO:DY:t=pp.	!	!LO:DY:t=pp.	!	!LO:DY:rj:t=pp.	!	!LO:DY:t=pp.	!	!	!	!	!	!	!	!	!	!	!	!	!	!	!	!	!	!	!
4.D/	pp	4.BB-/	pp	4.F/	pp	4.A-/	pp	4.d/	pp	.	.	2r	2BB-\	.	.	4.BB-\	pax,	.	4.A- 4.F/	.	.	4.B-/	.	.	4.d/	4.d\	.	.
8r	.	8r	.	8r	.	8r	.	8r	.	.	.	.	.	.	.	8r	.	.	8r	.	.	8r	.	.	8r	8ryy	.	.
*	*	*	*	*	*	*	*	*	*	*	*	*v	*v	*	*	*	*	*	*	*	*	*	*	*	*v	*v	*	*
=39	=39	=39	=39	=39	=39	=39	=39	=39	=39	=39	=39	=39	=39	=39	=39	=39	=39	=39	=39	=39	=39	=39	=39	=39	=39	=39
*	*	*	*	*	*	*	*	*	*	*	*	*	*	*	*^	*	*	*	*	*	*	*	*	*	*	*
!	!LO:DY:t=ppp.	!	!LO:DY:t=ppp.	!	!LO:DY:t=ppp.	!	!LO:DY:t=ppp.	!	!LO:DY:t=ppp.	!	!	!	!	!	!	!	!	!	!	!	!	!	!	!	!	!	!
1EE-;	ppp	1BB-;	ppp	1E-;	ppp	1G;	ppp	1e-;	ppp	1ryy	1ryy	1EE-;>	1r;	.	1E-;	1EE-	pax	.	1G;	.	.	1B-;	.	.	1e-;	.	.
*	*	*	*	*	*	*	*	*	*	*	*	*	*	*	*v	*v	*	*	*	*	*	*	*	*	*	*	*
==	==	==	==	==	==	==	==	==	==	==	==	==	==	==	==	==	==	==	==	==	==	==	==	==	==	==
*-	*-	*-	*-	*-	*-	*-	*-	*-	*-	*-	*-	*-	*-	*-	*-	*-	*-	*-	*-	*-	*-	*-	*-	*-	*-	*-
!!!system-decoration: [(s1,s2,s3,s4)][(s5,s6)][(s7,s8)][(s9,s10,s11,s12,s13)]
!!!RDF**kern: > = above
!!!RDF**kern: < = below
!!!RDF**kern: | = vertical stroke
!!!ENC: Mateusz Solarz
!!!END: 2021-07-16
!!!ENC: Andrzej Kubiczek
!!!END: 2021-07-23
